resources/haticons/SVG/lock_open.svg

<!-- Generated by IcoMoon.io -->
<svg version="1.1" xmlns="http://www.w3.org/2000/svg" width="24" height="24" viewBox="0 0 24 24">
<title>lock_open</title>
<path d="M18 20.016v-10.031h-12v10.031h12zM18 8.016q0.797 0 1.406 0.586t0.609 1.383v10.031q0 0.797-0.609 1.383t-1.406 0.586h-12q-0.797 0-1.406-0.586t-0.609-1.383v-10.031q0-0.797 0.609-1.383t1.406-0.586h9.094v-2.016q0-1.266-0.914-2.18t-2.18-0.914-2.18 0.914-0.914 2.18h-1.922q0-2.063 1.477-3.539t3.539-1.477 3.539 1.477 1.477 3.539v2.016h0.984zM12 17.016q-0.797 0-1.406-0.609t-0.609-1.406 0.609-1.406 1.406-0.609 1.406 0.609 0.609 1.406-0.609 1.406-1.406 0.609z"></path>
</svg>

<svg xmlns="http://www.w3.org/2000/svg" width="24" height="24"><path d="M18 20.016V9.985H6v10.031h12zm0-12q.797 0 1.406.586t.609 1.383v10.031q0 .797-.609 1.383T18 21.985H6q-.797 0-1.406-.586t-.609-1.383V9.985q0-.797.609-1.383T6 8.016h9.094V6q0-1.266-.914-2.18T12 2.906t-2.18.914T8.906 6H6.984q0-2.063 1.477-3.539T12 .984t3.539 1.477T17.016 6v2.016H18zm-6 9q-.797 0-1.406-.609t-.609-1.406.609-1.406T12 12.986t1.406.609.609 1.406-.609 1.406-1.406.609z"/></svg>
